Origami/22x22/apps/litecoin-qt.svg

<svg width="22" height="22" version="1.1" viewBox="0 0 22 22" xmlns="http://www.w3.org/2000/svg">
 <path d="M 1.0098,11.207 A 10,10 0 0 0 1,11.5 a 10,10 0 0 0 10,10 10,10 0 0 0 10,-10 10,10 0 0 0 -0.0098,-0.20703 10,10 0 0 1 -9.99,9.707 10,10 0 0 1 -9.9902,-9.793 z" style="opacity:.2"/>
 <circle cx="11" cy="11.053" r="8.571" style="fill:#ffffff"/>
 <path d="M 11,1.0525735 A 10.000179,10.007685 0 0 0 1,11.060425 10.000179,10.007685 0 0 0 1.007673,11.205486 10.000179,10.007685 0 0 1 11,1.4096476 10.000179,10.007685 0 0 1 20.992327,11.266859 10.000179,10.007685 0 0 0 21,11.060425 10.000179,10.007685 0 0 0 11,1.0525735 Z" style="fill:#ffffff;opacity:.2"/>
 <path d="m11 0.9999997a10 10 0 0 0 -10 10 10 10 0 0 0 10 10 10 10 0 0 0 9.999999 -10 10 10 0 0 0 -9.999999 -10z" style="fill:#4f4f4f"/>
 <path d="M 11.000001,4.4999981 A 7.0000009,7.0000009 0 0 1 18,11.499999 7.0000009,7.0000009 0 0 1 11.000001,18.5 7.0000009,7.0000009 0 0 1 4,11.499999 7.0000009,7.0000009 0 0 1 11.000001,4.4999981 Z" style="opacity:.2"/>
 <path d="M 11.000001,3.9999991 A 7.0000009,7.0000009 0 0 1 18,11 7.0000009,7.0000009 0 0 1 11.000001,18.000001 7.0000009,7.0000009 0 0 1 4,11 7.0000009,7.0000009 0 0 1 11.000001,3.9999991 Z" style="fill:#ffffff"/>
 <path d="m9.1 5-1.3340703 4.257115-1.1014229 0.385742-0.6645067 2.642857 1.0030692-0.350865-1.0030692 3.065151h9.3354929l0.664507-3h-4.860047l0.616186-1.728795 1.586607-0.485491 0.664507-2.6428573-1.487556 0.450614 0.880303-2.5934707z" style="fill:#4f4f4f"/>
 <path d="M 11,1 A 10,10 0 0 0 1,11 10,10 0 0 0 1.0097656,11.207031 10,10 0 0 1 11,1.5 10,10 0 0 1 20.990234,11.292969 10,10 0 0 0 21,11 10,10 0 0 0 11,1 Z" style="fill:#ffffff;opacity:.1"/>
</svg>

<svg xmlns="http://www.w3.org/2000/svg" width="22" height="22" version="1.1" viewBox="0 0 22 22">
 <path style="opacity:0.2" d="M 1.0098,11.207 A 10,10 0 0 0 1,11.5 a 10,10 0 0 0 10,10 10,10 0 0 0 10,-10 10,10 0 0 0 -0.0098,-0.20703 10,10 0 0 1 -9.99,9.707 10,10 0 0 1 -9.9902,-9.793 z"/>
 <circle style="fill:#ffffff" cx="11" cy="11.053" r="8.571"/>
 <path style="opacity:0.2;fill:#ffffff" d="M 11,1.0525735 A 10.000179,10.007685 0 0 0 1,11.060425 10.000179,10.007685 0 0 0 1.007673,11.205486 10.000179,10.007685 0 0 1 11,1.4096476 10.000179,10.007685 0 0 1 20.992327,11.266859 10.000179,10.007685 0 0 0 21,11.060425 10.000179,10.007685 0 0 0 11,1.0525735 Z"/>
 <path style="fill:#4f4f4f" d="M 11,0.9999997 A 10,10 0 0 0 1,11 10,10 0 0 0 11,21 10,10 0 0 0 20.999999,11 10,10 0 0 0 11,0.9999997 Z"/>
 <path style="opacity:0.2" d="M 11.000001,4.4999981 A 7.0000009,7.0000009 0 0 1 18,11.499999 7.0000009,7.0000009 0 0 1 11.000001,18.5 7.0000009,7.0000009 0 0 1 4,11.499999 7.0000009,7.0000009 0 0 1 11.000001,4.4999981 Z"/>
 <path style="fill:#ffffff" d="M 11.000001,3.9999991 A 7.0000009,7.0000009 0 0 1 18,11 7.0000009,7.0000009 0 0 1 11.000001,18.000001 7.0000009,7.0000009 0 0 1 4,11 7.0000009,7.0000009 0 0 1 11.000001,3.9999991 Z"/>
 <path style="fill:#4f4f4f" d="M 9.1,5 7.7659297,9.257115 6.6645068,9.642857 6.0000001,12.285714 7.0030693,11.934849 6.0000001,15 h 4.2857139 5.049779 L 16,12 H 11.139953 L 11.756139,10.271205 13.342746,9.785714 14.007253,7.1428567 12.519697,7.5934707 13.4,5 Z"/>
 <path style="opacity:0.1;fill:#ffffff" d="M 11,1 A 10,10 0 0 0 1,11 10,10 0 0 0 1.0097656,11.207031 10,10 0 0 1 11,1.5 10,10 0 0 1 20.990234,11.292969 10,10 0 0 0 21,11 10,10 0 0 0 11,1 Z"/>
</svg>
